public/avatar/hat/256.svg

<svg xmlns:xlink="http://www.w3.org/1999/xlink" height="92.9" width="100.7" xmlns="http://www.w3.org/2000/svg"><use height="30.15" transform="translate(15.2 39.8)" width="44.7" xlink:href="#a"/><defs><g id="a" fill-rule="evenodd"><path d="M-2.2 6.1Q-4.15 8.15-8.55 8l-1.95-.25q-.4 1.45-.4 2.9 0 1.5.4 2.75 1 3 3.9 4.4.3.15.3.45l-.05.15q-.1.45-.55.35-3.8-.55-5.8-3.2-.45-.6-.85-2.55l-1.85 6.3-.5.4q-4.2 1.25-6.3-.75-1.7-1.7-1.1-3.9.25-1.25 1.35-2.15 1.1-.95 2.35-.95 1.95-.1 2.35 2.1.1.25-.2.5l-.5.05-1.8-.2q-.6.25-.9 1.1l.15.8q.6.6 1.7.25 1.8-.65 2.05-3.65.35-6.55 4.25-10.05Q-8.25-.95-.4-.4 14.15-2.1 16 10.2q.55 4.3 2.5 4.9l.35-.1q.5-.4-.45-2.15-.15-.4.15-.65l.65.05q2.55 2.7 1.95 4.5-.45 1.45-2.6 1.85-2.9.5-3.6-.4l-1.05-3.25-.25-.9-.6 1.25q-1.1 1.7-3.7 2.1-.4 0-.5-.3l-.1-.2.15-.35q1.8-1.95 1.8-5.55l-.45-3.2Q7 9.8 1.6 8.3q-2.75-.75-3.8-2.2" fill="#3a0c07" transform="translate(23.45 9.95)"/><path d="M16.35 17.4q-.6-4.9-3.1-7.2.5 4.45-2.75 5.7 2.5-4 .25-9.5-2.1 1.95-7.1 1.15-5-.75-5.65-2.95-2 3.2-8.9 1.85-.75.9-.95 3.65-.25 3.95 2.45 6.75-1.8-.75-3.1-2.85-1.2-1.95-1.2-3.5l-.85 3.35q-.75 2.75-1.9 4.85-3.55 1.05-5.05-.6-1.25-1.3-.75-3.2.25-1.25 1.55-1.8 1.3-.5 2.1.15l-1.2.05q-1.25.35-1.8 1.9-.3 1 .45 1.7.7.65 1.85.65 2.95-.05 3.25-3.9.25-6 3.5-9.4Q-8.45-.1-.35.5q13.6-1.6 15.4 9.95.75 4.5 2.85 5.4 1.95.85 2.05-1.1 1.05 1.75-.7 2.5l-2.9.15" fill="#ff7900" transform="translate(23.45 9.95)"/><path d="M5.45 1.25Q8.2.3 9.95 1.8q4.15 2.4 5.1 8.65.75 4.5 2.85 5.4 1.95.85 2.05-1.1 1.05 1.75-.7 2.5l-2.9.15q-1.15-1.2-1.8-3.2l-1.3-4q.5 3.35-1.9 5.3 1.95-6.1-.6-9.95Q9 4.2 7 3.75q1.85-.25 3.45.5-1.05-1.9-5-3m-15.9 15q-3.9-4.7-.7-9.25-2.2 5.7 1.75 9.85l-1.05-.6" fill="#c74200" transform="translate(23.45 9.95)"/><path d="m-13.55 9.25-.25 1.45q-.6 4.35-2.65 8l-2.7.4q2.4-.6 3.35-4.3 1.2-4.5 2.25-5.55m10.95-8.1q1.9 0-.35 2.1l1.3.2-1.15.9.65-.05q.4.75-1.25 1.6-1.85 1-5.05.75l1.6-.3L-4.65 5l.95-1.05-4.4.65q1.1-.7 2.75-1.15l.9-.2-2.7.1q2.45-2.1 4.55-2.2" fill="#c74200" transform="translate(23.45 9.95)"/><path d="m-10 4.85 1.45.15-.2.3 2.8-.4q-.55.5-4 1.2l.8-.8q-1.15-.05-3.1.7 1.25-1.35 3.2-1.95-1.35-.35-3.45 1.15 1.6-2.3 2.5-2.25-.5.25-.1.25t-.15.35l2.3.25Q-9.4 4.4-10 4.85m15-2.3q-1.35.05-2.95.7l1.7.25 1.75.6q-1.45.55-2.05 1 1.8.2 2.3 1.55Q4 5.5.8 5.8 2.7 4 4.25 4l-5-.15Q2 2.05 4.2 2.35q-.6-.4-2-.5-1.35.7-2 .7.7-.8 1.55-1 1.05-.3.3.15l1.55.25q1.15.2 1.4.6" fill="#ffe8d7" transform="translate(23.45 9.95)"/><path d="M-10.35 5.85q-.4.7-.65 2.1-.4-.05-.3-.55l.95-1.55m20.45-.2q.8.6.85 1.3.3.45-.05.65l-.8-1.95M-2.05 4.3q.2 1.05.7 1.45.1.25-.25.4-.4.1-.5-.4l.05-1.45" fill="#3a0c07" transform="translate(23.45 9.95)"/><path d="M3.75-9.95Q8-9.7 11.75-4l.1.25Q11.9-3 9.7 2.2l-.25.6q-.05.25-.4.35l-.5-.1Q6.4 1.55 3.2.85-3.2-.45-8.6 3.6l-.45.1q-.7 0-3.65-6.9v-.45q.5-1.2 2.2-2.85 2.85-2.8 6.6-3.2h.25q.85.35 2.75 1.65 3.6-2.05 4.65-1.9" fill="#752020" transform="translate(23.45 9.95)"/><path d="M10.7-3.55q.05.8-2.05 5.3Q6.05.25 2.75-.3-3.7-1.45-8.85 2.4l-2.7-5.75L-9.9-5.7q2.4-2.45 6-2.85 1.25.5 2.95 1.75 3.6-2.05 4.35-2.05l2.25.5Q8.2-7.2 10.7-3.55" fill="#fff" transform="translate(23.45 9.95)"/><path d="m.9-6.75.35.1.1.3L1.3-5l2.2-.15.3.15.15.3L4-2.6q0 .4-.4.4l-2.45.15.2.8v.1l-.1.25q-.05.15-.3.15l-3.2.15q-.2 0-.3-.15l-.15-.3v-.05l.15-1-2.15.1-.45-.4-.15-1.85v-.05l.1-.25.3-.15 2-.15-.2-1.2v-.1l.1-.25.3-.15 3.6-.2" fill="#491515" transform="translate(23.45 9.95)"/><path d="M.85-4.55 3.5-4.7l.05 2.1-2.9.15.3 1.3-3.2.1.15-1.5-2.65.1-.15-1.9 2.5-.1-.3-1.7 3.65-.2-.1 1.8" fill="#f91e1e" transform="translate(23.45 9.95)"/><path d="m6.25-2.45-1.6-.4Q6-3.6 8.4-3.4L7.05-4.85Q5.4-6.05 3.85-6.3l2.25-.05Q5.6-7.9 4.3-8.2q1.15-.2 3.5 1.7 2.3 1.85 2.4 2.9L8.25 1.05Q6.45-.55 3-.65q1.05-.8 4.2-.8-.05-.5-.95-1M-8.4-6.4q.85-.6 2.4-.5l-1.5 1.85 1.55-.1-1.5 2.05 1.6.05-.85 1.35 2.05.5Q-7.3 0-7.85.65-7.75-.1-6.5-1l-.95.2-.8.3 1.45-1.95-1 .2q-.75.35-.85.15l.9-1.7.6-.6-1.6.25L-7.4-5.9l-1.7.65 1.15-1-.9.25.55-.5-.1.1" fill="#fcf" transform="translate(23.45 9.95)"/><path d="M-11.05 3.55q.7-.15 1.3.45 2.05-.25 2.8 1.15 1 2.05-1.2 4.05-1.9 1.65-4.05.4-1.6-1.1-1.2-3.15.55-2.65 2.35-2.9" fill="#230b0b" transform="translate(23.45 9.95)"/><path d="M-9.95 4.85q1.55-.25 2.1.6.5.75 0 1.9-1.3 3.05-3.85 1.5-1.65-1.1-.45-3.3 1.25-2.2 2.2-.7" fill="#f970e9" transform="translate(23.45 9.95)"/><path d="M-10 4.8q-1.8 1.65-1.55 4.15l-.15-.1q-1.6-1.05-.45-3.2Q-11 3.45-10 4.8" fill="#a0509e" transform="translate(23.45 9.95)"/><path d="M-9.55 5.25q.65-.35 1.05.25t.25 1.25q-.6 1.95-2.55 2.15l.95-.85q.65-.65.75-1.15.2-.6-.2-1l-.25-.65" fill="#f7c4f3" transform="translate(23.45 9.95)"/><path d="m-9.6.3.5.65q.5.8.5 1.95l-.1.95h.75l.15-.05h.2l.1.15q.45.95-.15 1.55l-1.25.1-.8.55-1.4-.2-.15-.55.1-.5q-.7-.65-.7-1.15l.05-.2q.1-.55.75-.55l.9.25q-.05-1.2-1.05-1.95l-.1-.2V.95l.9-.8q.4-.1.8.15" fill="#111607" transform="translate(23.45 9.95)"/><path d="M-9.9.7q1.25 1 .8 3.6l1.1.1q.65 1.25-1.15.7-.05.6-1.1.65-1 .05-.3-1-1.3-1.05-.5-1.25.85-.15 1.35.8.1-2.45-1.05-3.25L-9.9.7" fill="#5e8e0a" transform="translate(23.45 9.95)"/></g></defs></svg>

<?xml version="1.0" encoding="UTF-8" standalone="no"?>
<svg xmlns:xlink="http://www.w3.org/1999/xlink" height="92.9px" width="100.7px" xmlns="http://www.w3.org/2000/svg">
  <g transform="matrix(1.0, 0.0, 0.0, 1.0, 38.65, 49.75)">
    <use height="30.15" transform="matrix(1.0, 0.0, 0.0, 1.0, -23.45, -9.95)" width="44.7" xlink:href="#shape0"/>
  </g>
  <defs>
    <g id="shape0" transform="matrix(1.0, 0.0, 0.0, 1.0, 23.45, 9.95)">
      <path d="M-2.2 6.1 Q-4.15 8.15 -8.55 8.0 L-10.5 7.75 Q-10.9 9.2 -10.9 10.65 -10.9 12.15 -10.5 13.4 -9.5 16.4 -6.6 17.8 -6.3 17.95 -6.3 18.25 L-6.35 18.4 Q-6.45 18.85 -6.9 18.75 -10.7 18.2 -12.7 15.55 -13.15 14.95 -13.55 13.0 L-15.4 19.3 -15.9 19.7 Q-20.1 20.95 -22.2 18.95 -23.9 17.25 -23.3 15.05 -23.05 13.8 -21.95 12.9 -20.85 11.95 -19.6 11.95 -17.65 11.85 -17.25 14.05 -17.15 14.3 -17.45 14.55 L-17.95 14.6 -19.75 14.4 Q-20.35 14.65 -20.65 15.5 L-20.5 16.3 Q-19.9 16.9 -18.8 16.55 -17.0 15.9 -16.75 12.9 -16.4 6.35 -12.5 2.85 -8.25 -0.95 -0.4 -0.4 14.15 -2.1 16.0 10.2 16.55 14.5 18.5 15.1 L18.85 15.0 Q19.35 14.6 18.4 12.85 18.25 12.45 18.55 12.2 L19.2 12.25 Q21.75 14.95 21.15 16.75 20.7 18.2 18.55 18.6 15.65 19.1 14.95 18.2 L13.9 14.95 13.65 14.05 13.05 15.3 Q11.95 17.0 9.35 17.4 8.95 17.4 8.85 17.1 L8.75 16.9 8.9 16.55 Q10.7 14.6 10.7 11.0 L10.25 7.8 Q7.0 9.8 1.6 8.3 -1.15 7.55 -2.2 6.1" fill="#3a0c07" fill-rule="evenodd" stroke="none"/>
      <path d="M16.35 17.4 Q15.75 12.5 13.25 10.2 13.75 14.65 10.5 15.9 13.0 11.9 10.75 6.4 8.65 8.35 3.65 7.55 -1.35 6.8 -2.0 4.6 -4.0 7.8 -10.9 6.45 -11.65 7.35 -11.85 10.1 -12.1 14.05 -9.4 16.85 -11.2 16.1 -12.5 14.0 -13.7 12.05 -13.7 10.5 L-14.55 13.85 Q-15.3 16.6 -16.45 18.7 -20.0 19.75 -21.5 18.1 -22.75 16.8 -22.25 14.9 -22.0 13.65 -20.7 13.1 -19.4 12.6 -18.6 13.25 L-19.8 13.3 Q-21.05 13.65 -21.6 15.2 -21.9 16.2 -21.15 16.9 -20.45 17.55 -19.3 17.55 -16.35 17.5 -16.05 13.65 -15.8 7.65 -12.55 4.25 -8.45 -0.1 -0.35 0.5 13.25 -1.1 15.05 10.45 15.8 14.95 17.9 15.85 19.85 16.7 19.95 14.75 21.0 16.5 19.25 17.25 L16.35 17.4" fill="#ff7900" fill-rule="evenodd" stroke="none"/>
      <path d="M5.45 1.25 Q8.2 0.3 9.95 1.8 14.1 4.2 15.05 10.45 15.8 14.95 17.9 15.85 19.85 16.7 19.95 14.75 21.0 16.5 19.25 17.25 L16.35 17.4 Q15.2 16.2 14.55 14.2 L13.25 10.2 Q13.75 13.55 11.35 15.5 13.3 9.4 10.75 5.55 9.0 4.2 7.0 3.75 8.85 3.5 10.45 4.25 9.4 2.35 5.45 1.25" fill="#c74200" fill-rule="evenodd" stroke="none"/>
      <path d="M-10.45 16.25 Q-14.35 11.55 -11.15 7.0 -13.35 12.7 -9.4 16.85 L-10.45 16.25" fill="#c74200" fill-rule="evenodd" stroke="none"/>
      <path d="M-13.55 9.25 L-13.8 10.7 Q-14.4 15.05 -16.45 18.7 L-19.15 19.1 Q-16.75 18.5 -15.8 14.8 -14.6 10.3 -13.55 9.25" fill="#c74200" fill-rule="evenodd" stroke="none"/>
      <path d="M-2.6 1.15 Q-0.7 1.15 -2.95 3.25 L-1.65 3.45 -2.8 4.35 -2.15 4.3 Q-1.75 5.05 -3.4 5.9 -5.25 6.9 -8.45 6.65 L-6.85 6.35 -4.65 5.0 -3.7 3.95 -8.1 4.6 Q-7.0 3.9 -5.35 3.45 L-4.45 3.25 -7.15 3.35 Q-4.7 1.25 -2.6 1.15" fill="#c74200" fill-rule="evenodd" stroke="none"/>
      <path d="M-10.0 4.85 L-8.55 5.0 -8.75 5.3 -5.95 4.9 Q-6.5 5.4 -9.95 6.1 L-9.15 5.3 Q-10.3 5.25 -12.25 6.0 -11.0 4.65 -9.05 4.05 -10.4 3.7 -12.5 5.2 -10.9 2.9 -10.0 2.95 -10.5 3.2 -10.1 3.2 -9.7 3.2 -10.25 3.55 L-7.95 3.8 Q-9.4 4.4 -10.0 4.85" fill="#ffe8d7" fill-rule="evenodd" stroke="none"/>
      <path d="M5.0 2.55 Q3.65 2.6 2.05 3.25 L3.75 3.5 5.5 4.1 Q4.05 4.65 3.45 5.1 5.25 5.3 5.75 6.65 4.0 5.5 0.8 5.8 2.7 4.0 4.25 4.0 L-0.75 3.85 Q2.0 2.05 4.2 2.35 3.6 1.95 2.2 1.85 0.85 2.55 0.2 2.55 0.9 1.75 1.75 1.55 2.8 1.25 2.05 1.7 L3.6 1.95 Q4.75 2.15 5.0 2.55" fill="#ffe8d7" fill-rule="evenodd" stroke="none"/>
      <path d="M-10.35 5.85 Q-10.75 6.55 -11.0 7.95 -11.4 7.9 -11.3 7.4 L-10.35 5.85" fill="#3a0c07" fill-rule="evenodd" stroke="none"/>
      <path d="M10.1 5.65 Q10.9 6.25 10.95 6.95 11.25 7.4 10.9 7.6 L10.1 5.65" fill="#3a0c07" fill-rule="evenodd" stroke="none"/>
      <path d="M-2.05 4.3 Q-1.85 5.35 -1.35 5.75 -1.25 6.0 -1.6 6.15 -2.0 6.25 -2.1 5.75 L-2.05 4.3" fill="#3a0c07" fill-rule="evenodd" stroke="none"/>
      <path d="M3.75 -9.95 Q8.0 -9.7 11.75 -4.0 L11.85 -3.75 Q11.9 -3.0 9.7 2.2 L9.45 2.8 Q9.4 3.05 9.05 3.15 L8.55 3.05 Q6.4 1.55 3.2 0.85 -3.2 -0.45 -8.6 3.6 L-9.05 3.7 Q-9.75 3.7 -12.7 -3.2 L-12.7 -3.65 Q-12.2 -4.85 -10.5 -6.5 -7.65 -9.3 -3.9 -9.7 L-3.65 -9.7 Q-2.8 -9.35 -0.9 -8.05 2.7 -10.1 3.75 -9.95" fill="#752020" fill-rule="evenodd" stroke="none"/>
      <path d="M10.7 -3.55 Q10.75 -2.75 8.65 1.75 6.05 0.25 2.75 -0.3 -3.7 -1.45 -8.85 2.4 L-11.55 -3.35 -9.9 -5.7 Q-7.5 -8.15 -3.9 -8.55 -2.65 -8.05 -0.95 -6.8 2.65 -8.85 3.4 -8.85 L5.65 -8.35 Q8.2 -7.2 10.7 -3.55" fill="#ffffff" fill-rule="evenodd" stroke="none"/>
      <path d="M0.9 -6.75 L1.25 -6.65 1.35 -6.35 1.3 -5.0 3.5 -5.15 3.8 -5.0 3.95 -4.7 4.0 -2.6 Q4.0 -2.2 3.6 -2.2 L1.15 -2.05 1.35 -1.25 1.35 -1.15 1.25 -0.9 Q1.2 -0.75 0.95 -0.75 L-2.25 -0.6 Q-2.45 -0.6 -2.55 -0.75 L-2.7 -1.05 -2.7 -1.1 -2.55 -2.1 -4.7 -2.0 -5.15 -2.4 -5.3 -4.25 -5.3 -4.3 -5.2 -4.55 -4.9 -4.7 -2.9 -4.85 -3.1 -6.05 -3.1 -6.15 -3.0 -6.4 -2.7 -6.55 0.9 -6.75" fill="#491515" fill-rule="evenodd" stroke="none"/>
      <path d="M0.85 -4.55 L3.5 -4.7 3.55 -2.6 0.65 -2.45 0.95 -1.15 -2.25 -1.05 -2.1 -2.55 -4.75 -2.45 -4.9 -4.35 -2.4 -4.45 -2.7 -6.15 0.95 -6.35 0.85 -4.55" fill="#f91e1e" fill-rule="evenodd" stroke="none"/>
      <path d="M6.25 -2.45 L4.65 -2.85 Q6.0 -3.6 8.4 -3.4 L7.05 -4.85 Q5.4 -6.05 3.85 -6.3 L6.1 -6.35 Q5.6 -7.9 4.3 -8.2 5.45 -8.4 7.8 -6.5 10.1 -4.65 10.2 -3.6 L8.25 1.05 Q6.45 -0.55 3.0 -0.65 4.05 -1.45 7.2 -1.45 7.15 -1.95 6.25 -2.45" fill="#ffccff" fill-rule="evenodd" stroke="none"/>
      <path d="M-8.4 -6.4 Q-7.55 -7.0 -6.0 -6.9 L-7.5 -5.05 -5.95 -5.15 -7.45 -3.1 -5.85 -3.05 -6.7 -1.7 -4.65 -1.2 Q-7.3 0.0 -7.85 0.65 -7.75 -0.1 -6.5 -1.0 L-7.45 -0.8 -8.25 -0.5 -6.8 -2.45 -7.8 -2.25 Q-8.55 -1.9 -8.65 -2.1 L-7.75 -3.8 -7.15 -4.4 -8.75 -4.15 -7.4 -5.9 -9.1 -5.25 -7.95 -6.25 -8.85 -6.0 -8.3 -6.5 -8.4 -6.4" fill="#ffccff" fill-rule="evenodd" stroke="none"/>
      <path d="M-11.05 3.55 Q-10.35 3.4 -9.75 4.0 -7.7 3.75 -6.95 5.15 -5.95 7.2 -8.15 9.2 -10.05 10.85 -12.2 9.6 -13.8 8.5 -13.4 6.45 -12.85 3.8 -11.05 3.55" fill="#230b0b" fill-rule="evenodd" stroke="none"/>
      <path d="M-9.95 4.85 Q-8.4 4.6 -7.85 5.45 -7.35 6.2 -7.85 7.35 -9.15 10.4 -11.7 8.85 -13.35 7.75 -12.15 5.55 -10.9 3.35 -9.95 4.85" fill="#f970e9" fill-rule="evenodd" stroke="none"/>
      <path d="M-10.0 4.8 Q-11.8 6.45 -11.55 8.95 L-11.7 8.85 Q-13.3 7.8 -12.15 5.65 -11.0 3.45 -10.0 4.8" fill="#a0509e" fill-rule="evenodd" stroke="none"/>
      <path d="M-9.55 5.25 Q-8.9 4.9 -8.5 5.5 -8.1 6.1 -8.25 6.75 -8.85 8.7 -10.8 8.9 L-9.85 8.05 Q-9.2 7.4 -9.1 6.9 -8.9 6.3 -9.3 5.9 L-9.55 5.25" fill="#f7c4f3" fill-rule="evenodd" stroke="none"/>
      <path d="M-9.6 0.3 L-9.1 0.95 Q-8.6 1.75 -8.6 2.9 L-8.7 3.85 -7.95 3.85 -7.8 3.8 -7.6 3.8 -7.5 3.95 Q-7.05 4.9 -7.65 5.5 L-8.9 5.6 -9.7 6.15 -11.1 5.95 -11.25 5.4 -11.15 4.9 Q-11.85 4.25 -11.85 3.75 L-11.8 3.55 Q-11.7 3.0 -11.05 3.0 L-10.15 3.25 Q-10.2 2.05 -11.2 1.3 L-11.3 1.1 -11.3 0.95 -10.4 0.15 Q-10.0 0.05 -9.6 0.3" fill="#111607" fill-rule="evenodd" stroke="none"/>
      <path d="M-9.9 0.7 Q-8.65 1.7 -9.1 4.3 L-8.0 4.4 Q-7.35 5.65 -9.15 5.1 -9.2 5.7 -10.25 5.75 -11.25 5.8 -10.55 4.75 -11.85 3.7 -11.05 3.5 -10.2 3.35 -9.7 4.3 -9.6 1.85 -10.75 1.05 L-9.9 0.7" fill="#5e8e0a" fill-rule="evenodd" stroke="none"/>
    </g>
  </defs>
</svg>
